X:1
T:Title
%%score { ( 1 3 ) | 2 }
L:1/8
Q:1/4=92
M:6/8
K:Bb
V:1 treble nm="Grand Piano"
V:3 treble 
V:2 bass 
V:1
 D3 _D2 [DA] | [_DG]3 [=DF]3 | [DB][DA][DG] [DF][CE][K:bass][F,B,D] | [F,A,E]6 | %4
w: D.~L.~Hutton * *||||
 [F,A,E]3 [F,_A,D]2[K:treble] [A,DF] | [_A,DF]3 E3 | ABc G2 A | [DF]6 | [B,D]3 [B,_D]2 [DA] | %9
w: |||||
 [_DG]3 [=DF]3 | ddd ded | [EG]6 | ed[Gc] [^Fc][Fd][Fe] | [Ff]3 [DB]3 | [Ge][Fd]c G2 A | [DB]6 |] %16
w: |||||||
V:2
 [B,,F,B,]3 [B,,=E,B,]2 [B,,E,] | [B,,=E,]3 [B,,F,]3 | [B,,F,][B,,F,][B,,F,] [B,,B,][B,,B,]D, | %3
 C,D,C, F,,3 | C,3 =B,,2 B,, | =B,,3 [C,G,C]3 | [F,E][F,G,E][F,A,E] [F,A,E]2 [F,CE] | [B,,B,]6 | %8
 [B,,F,]3 [B,,=E,]2 [B,,E,] | [B,,=E,]3 [B,,F,]3 | [B,F][A,B,F][_A,B,F] [G,=B,F][G,B,G][G,B,F] | %11
 [C,C]6 | [C,C][D,=B,][E,C] [E,A,][D,A,][C,A,] | [D,B,]3 [G,B,]3 | %14
 [C,C][D,=B,][E,CE] [=E,B,C]2 [F,A,E] | [B,,F,B,]6 |] %16
V:3
 x6 | x6 | x5[K:bass] x | x6 | x5[K:treble] x | x6 | x6 | x6 | x6 | x6 | x6 | x6 | .G3 z3 | x6 | %14
 x6 | x6 |] %16

